public/svg/people.svg

<?xml version="1.0" encoding="UTF-8"?>
<svg viewBox="0 0 170 149" xmlns="http://www.w3.org/2000/svg">
<path d="m83.239 37.851c-10.371 0-18.808-8.4375-18.808-18.808 0-10.371 8.4375-18.808 18.808-18.808 10.371 0 18.808 8.4375 18.808 18.808 0 10.371-8.437 18.808-18.808 18.808zm0-31.758c-7.1485 0-12.949 5.8008-12.949 12.949 0 7.1483 5.8008 12.949 12.949 12.949 7.1484 0 12.949-5.8008 12.949-12.949 0-7.1484-5.8203-12.949-12.949-12.949z" fill="#008BE6"/>
<path d="m82.166 111.03h5.8593v34.512h-5.8593v-34.512z" fill="#008BE6"/>
<path d="m129.06 148.47h-14.551c-4.063 0-7.383-3.32-7.383-7.382v-31.212c-0.098-0.313-0.156-0.625-0.156-0.977v-18.32c0-7.4413-2.676-14.629-7.5391-20.253-0.7617-0.8985-0.918-2.1485-0.4297-3.1837 2.3828-5.293 5.8008-9.9218 10.157-13.789l0.468-0.4297c0.762-0.6836 1.836-0.8984 2.813-0.6054 3.027 0.9375 6.172 1.4062 9.355 1.4062 3.711 0 7.364-0.6445 10.84-1.914 3.496-1.2695 6.699-3.125 9.531-5.5078l11.661-9.7852c1.933-1.6211 4.375-2.3828 6.875-2.1288 2.5 0.2343 4.746 1.4648 6.328 3.418 3.125 3.8671 2.656 9.4921-1.074 12.774l-18.907 16.777c-3.301 2.9296-5.899 6.4648-7.695 10.469-1.817 4.0235-2.735 8.3008-2.735 12.715v18.32c0 0.352-0.058 0.664-0.176 0.977v31.211c0 4.122-3.3 7.422-7.382 7.422zm-16.231-40.546c0.098 0.312 0.157 0.625 0.157 0.976v32.187c0 0.84 0.683 1.523 1.523 1.523h14.551c0.84 0 1.523-0.683 1.523-1.523v-32.187c0-0.351 0.059-0.664 0.176-0.976v-17.344c0-5.2539 1.094-10.332 3.242-15.117 2.149-4.7852 5.235-8.9648 9.16-12.461l18.907-16.777c1.367-1.2109 1.543-3.3008 0.391-4.7265-0.586-0.7226-1.407-1.1718-2.344-1.2695-0.918-0.0976-1.816 0.1953-2.539 0.7813l-11.641 9.8241c-3.359 2.8125-7.168 5.0195-11.289 6.5235s-8.457 2.2657-12.851 2.2657c-3.203 0-6.367-0.4101-9.453-1.2109-2.969 2.7735-5.391 5.9961-7.246 9.6093 5 6.4453 7.734 14.394 7.734 22.578l-1e-3 17.323z" fill="#008BE6"/>
<path d="m118.94 114.74h5.86v30.82h-5.86v-30.82z" fill="#008BE6"/>
<path d="m93.338 148.47h-16.66c-4.3555 0-7.9102-3.554-7.9102-7.91v-56.563c0-4.9805-1.0351-9.8242-3.086-14.375-2.0508-4.5509-4.9805-8.5547-8.711-11.875l-0.4687-0.4102-20.703-18.378c-4.0235-3.5742-4.5314-9.6485-1.1524-13.828l0.0391-0.039c1.6991-2.0899 4.1211-3.3985 6.8163-3.6524 2.7148-0.2539 5.3515 0.5469 7.4413 2.3047l13.027 10.938c0.0195 0.0195 0.039 0.0195 0.039 0.0391l0.0196 0.0195c4.0038 3.3398 8.789 5.8203 13.828 7.1485 0.8008 0.2148 1.6016 0.3906 2.3829 0.5469 4.4726 0.8593 9.1406 0.8593 13.613 0 0.7812-0.1563 1.582-0.3321 2.3828-0.5469 1.0352-0.2734 2.0704-0.6055 3.0664-0.957 3.0271-1.0938 5.8981-2.6172 8.5161-4.4727 0.781-0.5664 1.542-1.1524 2.265-1.7383l13.067-10.957c2.089-1.7579 4.726-2.5782 7.441-2.3047s5.137 1.582 6.855 3.6913c0.157 0.1953 0.293 0.3711 0.411 0.5664 1.777 2.539 2.265 5.8009 1.347 8.75-0.547 1.7384-1.562 3.3009-2.929 4.5117l-21.192 18.788c-3.731 3.3204-6.66 7.3047-8.711 11.856 0 0.0196-0.02 0.0391-0.02 0.0586-2.031 4.5508-3.066 9.3555-3.066 14.336v56.564c-0.039 4.336-3.593 7.89-7.9485 7.89zm-54.18-119.63c-1.3867 1.7384-1.1719 4.2579 0.5078 5.7422l21.172 18.788c4.375 3.8672 7.793 8.5352 10.176 13.848s3.5936 10.957 3.5936 16.777v56.563c0 1.133 0.918 2.051 2.0509 2.051h16.66c1.1328 0 2.0508-0.918 2.0508-2.051v-56.563c0-5.8204 1.2109-11.465 3.5937-16.777 0-0.0195 0.0195-0.0391 0.039-0.0586 2.383-5.293 5.801-9.9413 10.156-13.789l0.469-0.4297 20.703-18.36c0.567-0.5078 0.997-1.1523 1.211-1.875 0.391-1.25 0.196-2.5976-0.566-3.6523-0.02-0.0195-0.02-0.0391-0.039-0.0586-0.039-0.0391-0.078-0.0976-0.137-0.1758-0.722-0.8984-1.738-1.4453-2.871-1.5429-1.133-0.1172-2.226 0.2343-3.105 0.957l-13.067 10.957c-0.84 0.7031-1.718 1.3867-2.636 2.0313-3.047 2.168-6.387 3.9259-9.9223 5.2149-1.1524 0.4296-2.3633 0.8007-3.5742 1.1328-0.9375 0.2539-1.875 0.4687-2.7735 0.625-5.1758 0.9961-10.625 0.9961-15.82 0-0.8985-0.1758-1.836-0.3907-2.7735-0.625-5.8594-1.543-11.406-4.4337-16.055-8.3009-0.0195-0.0195-0.039-0.0195-0.0586-0.039l-0.0195-0.0196-13.066-10.957c-0.8789-0.7226-1.9727-1.0742-3.1055-0.957-1.1329 0.1172-2.1485 0.6641-2.8515 1.543 0.0585-0.0196 0.0585-0.0196 0.0585 0l-1e-4 0.0012z" fill="#008BE6"/>
<path d="m55.642 148.47h-0.1758c-1.6211 0-2.9297-1.308-2.9297-2.929s1.3086-2.93 2.9297-2.93c0.8398 0 1.5234-0.684 1.5234-1.523v-32.187c0-1.621 1.3086-2.93 2.9297-2.93h0.1758c1.6211 0 2.9296 1.309 2.9296 2.93v32.187c0 4.082-3.3202 7.382-7.3827 7.382z" fill="#008BE6"/>
<path d="m55.486 148.47h-14.551c-4.0625 0-7.3829-3.32-7.3829-7.382v-31.212c-0.1171-0.313-0.1757-0.625-0.1757-0.977v-18.32c0-8.8672-3.8087-17.325-10.43-23.183l-18.907-16.758c-3.711-3.3008-4.1797-8.9063-1.0742-12.774 0.01953-0.0195 0.03907-0.0586 0.07813-0.0781 1.582-1.914 3.789-3.086 6.2695-3.3398 2.5-0.2539 4.9414 0.5078 6.875 2.1288l11.66 9.7852c5.7032 4.7851 12.93 7.4218 20.372 7.4218 3.164 0 6.3086-0.4687 9.3555-1.4062 0.9765-0.293 2.0313-0.0782 2.8125 0.6054l0.4687 0.4297c4.375 3.8672 7.793 8.5352 10.176 13.848 0.4687 1.0351 0.2929 2.2461-0.4493 3.1055-1.9531 2.2656-3.5741 4.8047-4.8046 7.539-1.8164 4.0235-2.7344 8.3008-2.7344 12.715v18.32c0 0.351-0.0586 0.664-0.1758 0.976v31.212c-0.0195 4.043-3.3205 7.344-7.383 7.344zm-16.25-40.546c0.1172 0.312 0.1758 0.625 0.1758 0.976v32.187c0 0.84 0.6836 1.523 1.5234 1.523h14.551c0.8398 0 1.5234-0.683 1.5234-1.523v-32.187c0-0.332 0.0586-0.664 0.1758-0.976v-17.344c0-5.2539 1.0937-10.332 3.2421-15.117 1.1914-2.6563 2.6954-5.1563 4.4922-7.461-1.836-3.6133-4.2773-6.836-7.2265-9.6093-3.086 0.8008-6.2695 1.2109-9.4532 1.2109-8.8086 0-17.383-3.125-24.14-8.789l-11.66-9.7852c-0.7032-0.6054-1.6211-0.8789-2.539-0.7812-0.91797 0.0976-1.7578 0.5469-2.3437 1.2695-0.01953 0.0195-0.01953 0.0391-0.03906 0.0586-1.1133 1.4258-0.91797 3.457 0.42969 4.668l18.907 16.777c7.8907 6.9921 12.402 17.032 12.402 27.578v17.326l-0.0207-1e-3z" fill="#008BE6"/>
<path d="m40.935 148.47h-0.1766c-4.0625 0-7.3829-3.32-7.3829-7.382v-32.187c0-1.621 1.3086-2.93 2.9297-2.93h0.1758c1.6211 0 2.9296 1.309 2.9296 2.93v32.187c0 0.839 0.6836 1.523 1.5235 1.523 1.6211 0 2.9296 1.309 2.9296 2.93s-1.3272 2.929-2.9287 2.929z" fill="#008BE6"/>
<path d="m45.349 114.74h5.8594v30.82h-5.8594v-30.82z" fill="#008BE6"/>
</svg>

<svg width="170" height="149" viewBox="0 0 170 149" fill="none" xmlns="http://www.w3.org/2000/svg">
<path d="M83.2391 37.851C72.868 37.851 64.4308 29.4135 64.4308 19.0427C64.4308 8.67187 72.8683 0.234375 83.2391 0.234375C93.61 0.234375 102.047 8.67187 102.047 19.0427C102.047 29.4135 93.61 37.851 83.2391 37.851ZM83.2391 6.09271C76.0906 6.09271 70.29 11.8935 70.29 19.0419C70.29 26.1902 76.0908 31.991 83.2391 31.991C90.3875 31.991 96.1883 26.1902 96.1883 19.0419C96.1883 11.8935 90.368 6.09271 83.2391 6.09271Z" fill="#008BE6"/>
<path d="M82.1658 111.034H88.0251V145.546H82.1658V111.034Z" fill="#008BE6"/>
<path d="M129.061 148.469H114.51C110.447 148.469 107.127 145.149 107.127 141.087V109.875C107.029 109.562 106.971 109.25 106.971 108.898V90.5783C106.971 83.137 104.295 75.9495 99.4319 70.325C98.6702 69.4265 98.5139 68.1765 99.0022 67.1413C101.385 61.8483 104.803 57.2195 109.159 53.3523L109.627 52.9226C110.389 52.239 111.463 52.0242 112.44 52.3172C115.467 53.2547 118.612 53.7234 121.795 53.7234C125.506 53.7234 129.159 53.0789 132.635 51.8094C136.131 50.5399 139.334 48.6844 142.166 46.3016L153.827 36.5164C155.76 34.8953 158.202 34.1336 160.702 34.3876C163.202 34.6219 165.448 35.8524 167.03 37.8056C170.155 41.6727 169.686 47.2977 165.956 50.5791L147.049 67.3558C143.748 70.2854 141.15 73.8206 139.354 77.8244C137.537 81.8479 136.619 86.1252 136.619 90.5392V108.859C136.619 109.211 136.561 109.523 136.443 109.836V141.047C136.443 145.169 133.143 148.469 129.061 148.469ZM112.83 107.923C112.928 108.235 112.987 108.548 112.987 108.899V141.086C112.987 141.926 113.67 142.609 114.51 142.609H129.061C129.901 142.609 130.584 141.926 130.584 141.086V108.899C130.584 108.548 130.643 108.235 130.76 107.923V90.5794C130.76 85.3255 131.854 80.2474 134.002 75.4622C136.151 70.677 139.237 66.4974 143.162 63.0012L162.069 46.2245C163.436 45.0136 163.612 42.9237 162.46 41.498C161.874 40.7754 161.053 40.3262 160.116 40.2285C159.198 40.1309 158.3 40.4238 157.577 41.0098L145.936 50.8339C142.577 53.6464 138.768 55.8534 134.647 57.3574C130.526 58.8614 126.19 59.6231 121.796 59.6231C118.593 59.6231 115.429 59.213 112.343 58.4122C109.374 61.1857 106.952 64.4083 105.097 68.0215C110.097 74.4668 112.831 82.416 112.831 90.5998L112.83 107.923Z" fill="#008BE6"/>
<path d="M118.942 114.744H124.802V145.564H118.942V114.744Z" fill="#008BE6"/>
<path d="M93.3375 148.469H76.6773C72.3218 148.469 68.7671 144.915 68.7671 140.559V83.9959C68.7671 79.0154 67.732 74.1717 65.6811 69.6209C63.6303 65.07 60.7006 61.0662 56.9701 57.7459L56.5014 57.3357L35.7981 38.9574C31.7746 35.3832 31.2667 29.3089 34.6457 25.1292L34.6848 25.0902C36.3839 23.0003 38.8059 21.6917 41.5011 21.4378C44.2159 21.1839 46.8526 21.9847 48.9424 23.7425L61.9698 34.68C61.9893 34.6995 62.0088 34.6995 62.0088 34.7191L62.0284 34.7386C66.0322 38.0784 70.8174 40.5589 75.8565 41.8871C76.6573 42.1019 77.4581 42.2777 78.2394 42.434C82.712 43.2933 87.38 43.2933 91.8527 42.434C92.6339 42.2777 93.4347 42.1019 94.2355 41.8871C95.2707 41.6137 96.3059 41.2816 97.3019 40.9301C100.329 39.8363 103.2 38.3129 105.818 36.4574C106.599 35.891 107.36 35.305 108.083 34.7191L121.15 23.7621C123.239 22.0042 125.876 21.1839 128.591 21.4574C131.306 21.7309 133.728 23.0394 135.446 25.1487C135.603 25.344 135.739 25.5198 135.857 25.7151C137.634 28.2541 138.122 31.516 137.204 34.4651C136.657 36.2035 135.642 37.766 134.275 38.9768L113.083 57.7651C109.352 61.0855 106.423 65.0698 104.372 69.6206C104.372 69.6402 104.352 69.6597 104.352 69.6792C102.321 74.23 101.286 79.0347 101.286 84.0152V140.579C101.247 144.915 97.693 148.469 93.3375 148.469ZM39.1575 28.841C37.7708 30.5794 37.9856 33.0989 39.6653 34.5832L60.837 53.3715C65.212 57.2387 68.63 61.9067 71.0128 67.2192C73.3956 72.5317 74.6064 78.1762 74.6064 83.9959V140.559C74.6064 141.692 75.5244 142.61 76.6573 142.61H93.3175C94.4503 142.61 95.3683 141.692 95.3683 140.559V83.9959C95.3683 78.1755 96.5792 72.5311 98.962 67.2192C98.962 67.1997 98.9815 67.1801 99.001 67.1606C101.384 61.8676 104.802 57.2193 109.157 53.3716L109.626 52.9419L130.329 34.5819C130.896 34.0741 131.326 33.4296 131.54 32.7069C131.931 31.4569 131.736 30.1093 130.974 29.0546C130.954 29.0351 130.954 29.0155 130.935 28.996C130.896 28.9569 130.857 28.8984 130.798 28.8202C130.076 27.9218 129.06 27.3749 127.927 27.2773C126.794 27.1601 125.701 27.5116 124.822 28.2343L111.755 39.1913C110.915 39.8944 110.037 40.578 109.119 41.2226C106.072 43.3906 102.732 45.1485 99.1967 46.4375C98.0443 46.8671 96.8334 47.2382 95.6225 47.5703C94.685 47.8242 93.7475 48.039 92.849 48.1953C87.6732 49.1914 82.224 49.1914 77.0287 48.1953C76.1302 48.0195 75.1927 47.8046 74.2552 47.5703C68.3958 46.0273 62.8489 43.1366 58.2005 39.2694C58.181 39.2499 58.1615 39.2499 58.1419 39.2304L58.1224 39.2108L45.0561 28.2538C44.1772 27.5312 43.0834 27.1796 41.9506 27.2968C40.8177 27.414 39.8021 27.9609 39.0991 28.8398C39.1576 28.8202 39.1576 28.8202 39.1576 28.8398L39.1575 28.841Z" fill="#008BE6"/>
<path d="M55.6425 148.469H55.4667C53.8456 148.469 52.537 147.161 52.537 145.54C52.537 143.919 53.8456 142.61 55.4667 142.61C56.3065 142.61 56.9901 141.926 56.9901 141.087V108.9C56.9901 107.279 58.2987 105.97 59.9198 105.97H60.0956C61.7167 105.97 63.0252 107.279 63.0252 108.9V141.087C63.0252 145.169 59.705 148.469 55.6425 148.469Z" fill="#008BE6"/>
<path d="M55.4858 148.469H40.935C36.8725 148.469 33.5521 145.149 33.5521 141.087V109.875C33.435 109.562 33.3764 109.25 33.3764 108.898V90.5783C33.3764 81.7111 29.5677 73.2533 22.9467 67.395L4.04002 50.6366C0.32902 47.3358 -0.139647 41.7303 2.9658 37.8631C2.98533 37.8436 3.00487 37.8045 3.04393 37.785C4.62596 35.871 6.83293 34.699 9.31343 34.4452C11.8134 34.1913 14.2548 34.953 16.1884 36.574L27.8486 46.3592C33.5518 51.1443 40.7783 53.781 48.2203 53.781C51.3843 53.781 54.5289 53.3123 57.5758 52.3748C58.5523 52.0818 59.6071 52.2966 60.3883 52.9802L60.857 53.4099C65.232 57.2771 68.65 61.9451 71.0329 67.2576C71.5016 68.2927 71.3258 69.5037 70.5836 70.3631C68.6305 72.6287 67.0095 75.1678 65.779 77.9021C63.9626 81.9256 63.0446 86.2029 63.0446 90.6169V108.937C63.0446 109.288 62.986 109.601 62.8688 109.913V141.125C62.8493 145.168 59.5483 148.469 55.4858 148.469ZM39.2358 107.923C39.353 108.235 39.4116 108.548 39.4116 108.899V141.086C39.4116 141.926 40.0952 142.609 40.935 142.609H55.4859C56.3257 142.609 57.0093 141.926 57.0093 141.086V108.899C57.0093 108.567 57.0679 108.235 57.1851 107.923V90.5794C57.1851 85.3255 58.2788 80.2474 60.4272 75.4622C61.6186 72.8059 63.1226 70.3059 64.9194 68.0012C63.0834 64.3879 60.6421 61.1652 57.6929 58.3919C54.6069 59.1927 51.4234 59.6028 48.2397 59.6028C39.4311 59.6028 30.8564 56.4778 24.0997 50.8138L12.4396 41.0286C11.7364 40.4232 10.8185 40.1497 9.90057 40.2474C8.9826 40.345 8.14274 40.7943 7.5569 41.5169C7.53737 41.5364 7.53737 41.556 7.51784 41.5755C6.40456 43.0013 6.59987 45.0325 7.94753 46.2435L26.8542 63.0202C34.7449 70.0123 39.2565 80.0519 39.2565 90.5985V107.924L39.2358 107.923Z" fill="#008BE6"/>
<path d="M40.935 148.469L40.7584 148.469C36.6959 148.469 33.3755 145.149 33.3755 141.087V108.9C33.3755 107.279 34.6841 105.97 36.3052 105.97H36.481C38.1021 105.97 39.4106 107.279 39.4106 108.9V141.087C39.4106 141.926 40.0942 142.61 40.9341 142.61C42.5552 142.61 43.8637 143.919 43.8637 145.54C43.8637 147.161 42.5365 148.469 40.935 148.469Z" fill="#008BE6"/>
<path d="M45.3491 114.744H51.2085V145.564H45.3491V114.744Z" fill="#008BE6"/>
</svg>
